dist/img/sprites/company-insurance-3.svg

<svg width="135" height="100" viewBox="0 0 135 100" xmlns="http://www.w3.org/2000/svg">
<path d="M64.1195 40.7084V28.6435C66.5408 28.5494 68.9146 28.5024 70.7899 30.2898C72.6414 32.0302 72.8788 34.2409 72.2379 36.5457C71.597 38.874 69.8404 40.0264 67.5615 40.4262C66.8119 40.5684 66.0516 40.6044 65.2733 40.6413C64.8933 40.6593 64.509 40.6775 64.1195 40.7084Z" />
<path d="M38.7909 45.4593L35.7525 38.7565L32.714 45.4593H38.7909Z" />
<path d="M46.7702 77.4495C46.7702 78.3884 46.0161 78.5487 45.3286 78.5487H44.4415V76.3273H45.5948C46.1714 76.3273 46.7702 76.6708 46.7702 77.4495Z" />
<path d="M35.8872 77.0185L35.0977 78.9955H36.6316L35.8872 77.0185Z" />
<path d="M56.1124 78.9955L56.8989 77.0185L57.6404 78.9955H56.1124Z" />
<path d="M23.1786 79.7226L22.0268 76.7688L20.8482 79.7226H23.1786Z" />
<path d="M82 81.2739C82.3571 81.2739 83.7437 81.1823 83.7437 78.9151C83.7437 77.5869 83.1975 76.5563 82 76.5563C80.4034 76.5563 80.2563 78.2968 80.2563 78.9151C80.2563 79.8311 80.5084 81.2739 82 81.2739Z" />
<path d="M94.8409 78.8575H96.3495C97.3387 78.8575 97.7591 78.4437 97.7591 77.6621C97.7591 76.9265 97.2892 76.6047 96.3495 76.6047H94.8409V78.8575Z" />
<path d="M101.522 76.7426L102.482 79.7081H100.562L101.522 76.7426Z" />
<path fill-rule="evenodd" clip-rule="evenodd" d="M134.332 0H0.332031V100H134.332V0ZM75.3002 44.3067C75.3794 44.244 75.4375 44.2022 75.4955 44.1603C75.5245 44.1395 75.5534 44.1186 75.585 44.0951C79.5967 41.4375 81.5195 37.7686 80.9972 32.9474C80.6412 29.6548 79.2406 26.9032 76.6295 24.81C73.7097 22.4817 70.2915 21.5645 66.6121 21.4939C63.2176 21.4234 56.1912 21.4939 56.0488 21.5175V56.5833H58.7312V23.8928L65.9 23.8458C67.7278 23.8693 69.5319 24.081 71.2647 24.716C76.7719 26.6915 78.7896 31.3952 78.1487 35.9812C77.7214 39.0857 75.9174 41.3199 73.2112 42.8721C72.9541 43.0137 72.6882 43.1468 72.419 43.2816C72.2409 43.3707 72.0614 43.4605 71.8819 43.5541L80.6412 56.3716C80.7124 56.4657 80.8311 56.6068 80.926 56.6068C81.5366 56.6223 82.1471 56.6174 82.7849 56.6122C83.1142 56.6095 83.4508 56.6068 83.7983 56.6068L75.3002 44.3067ZM19.5391 56.6303L35.9657 21L52.416 56.6068C52.1829 56.6068 51.9528 56.6083 51.725 56.6098H51.7227C51.0465 56.6142 50.39 56.6184 49.7336 56.5833C49.6149 56.5833 49.4725 56.3246 49.4013 56.16L35.8945 26.5974L22.4589 56.16C22.2927 56.5127 22.1028 56.6538 21.6992 56.6303C21.2468 56.6149 20.7945 56.6197 20.3151 56.6249C20.0651 56.6275 19.8076 56.6303 19.5391 56.6303ZM116.863 56.0425L106.514 38.9917C106.325 38.686 106.325 38.4508 106.514 38.145L116.436 21.5176C116.138 21.5176 115.847 21.5203 115.563 21.523C115.012 21.5281 114.484 21.5331 113.967 21.5176C113.612 21.5176 113.421 21.6352 113.255 21.9174L103.499 38.1921C103.334 38.4743 103.334 38.6624 103.499 38.9447L113.967 56.2071C114.062 56.3718 114.229 56.6069 114.348 56.6069C115.038 56.642 115.716 56.6379 116.429 56.6335C116.672 56.632 116.919 56.6305 117.173 56.6305C117.053 56.3718 116.958 56.2071 116.863 56.0425ZM90.1832 21.8703L99.9157 37.9333C100.106 38.2156 100.082 38.4272 99.892 38.6859L99.7738 38.8808L99.7673 38.8916C96.2719 44.6556 92.7765 50.4198 89.2812 56.2071C89.0913 56.5128 88.9251 56.6539 88.5691 56.6304C88.0692 56.6149 87.5694 56.6198 87.0425 56.625H87.0404C86.7672 56.6276 86.4868 56.6304 86.1953 56.6304C86.314 56.4187 86.4089 56.2541 86.5039 56.0895L96.901 38.733C97.0909 38.4037 97.1147 38.1685 96.901 37.8393L86.9786 21.4705C87.2258 21.4705 87.4683 21.469 87.707 21.4675C88.4084 21.4631 89.077 21.4589 89.7322 21.494C89.8984 21.494 90.0883 21.7057 90.1832 21.8703ZM68.0366 42.519C68.0839 42.4722 68.1076 42.4488 68.1312 42.4488C68.1816 42.4388 68.2363 42.4246 68.2934 42.4097C68.3709 42.3895 68.4528 42.3682 68.5348 42.3547C71.0035 41.7903 73.0924 40.6143 74.398 38.3566C76.5344 34.7112 75.5849 27.985 68.7009 26.5033C67.4428 26.2446 66.2085 26.1741 64.9504 26.1741L61.5321 26.2446C61.5084 26.2446 61.4846 26.2682 61.4609 26.2917V56.6068H64.1195V41.1553L74.5404 56.2305C74.6354 56.3716 74.8253 56.6068 74.9677 56.6068C75.8935 56.6303 76.7955 56.6303 77.8163 56.6303L68.0366 42.519ZM28.916 47.8346L35.8474 32.6653L42.7314 47.8346H28.916ZM101.577 40.6848L91.8926 56.6303C92.1829 56.6303 92.4623 56.6276 92.7344 56.6249H92.739C93.2659 56.6197 93.7666 56.6149 94.2664 56.6303C94.6224 56.6303 94.8123 56.5362 94.9785 56.2305L101.435 45.4356L108.01 56.254C108.105 56.4186 108.319 56.6068 108.461 56.6303C109.116 56.6654 109.785 56.6612 110.486 56.6568C110.725 56.6553 110.968 56.6538 111.215 56.6538L101.577 40.6848ZM107.655 21.8937C107.845 21.5879 108.035 21.4468 108.415 21.4703C109.123 21.5156 109.831 21.4955 110.623 21.4729L110.717 21.4703L101.839 36.1693L92.9609 21.4938C93.2213 21.4938 93.4739 21.4923 93.7211 21.4908C94.4434 21.4864 95.1199 21.4823 95.8095 21.5174C95.9282 21.5174 96.0943 21.7525 96.1893 21.9172L101.958 31.3715L107.655 21.8937ZM46.6718 56.4658L43.942 50.4921C43.8708 50.351 43.6334 50.2334 43.4672 50.2334H28.1801C28.0139 50.2334 27.7528 50.398 27.6578 50.5627L24.9043 56.6069C25.1794 56.6069 25.4463 56.6042 25.7068 56.6015C26.21 56.5963 26.6903 56.5914 27.1593 56.6069C27.5154 56.6304 27.6578 56.4893 27.8003 56.1835L29.2483 52.9851C29.3907 52.6793 29.5331 52.5617 29.8892 52.5617H41.5919C41.9717 52.5617 42.1142 52.7028 42.2566 53.0086L43.7521 56.2306C43.8233 56.3717 43.9895 56.5598 44.1082 56.5598C44.9627 56.5834 45.8173 56.5834 46.6718 56.5834V56.4658ZM30.7806 78.6842H29.5503V76.4457H31.0021C31.8393 76.4457 31.9664 76.7992 32.0688 77.0842C32.138 77.2767 32.196 77.438 32.4539 77.438H32.7V75.938C32.5031 76.0303 32.2325 76.0534 32.0356 76.0534H28V76.1918C28 76.3477 28.0965 76.3555 28.2079 76.3646C28.3606 76.377 28.5414 76.3917 28.5414 76.7918V81.1765C28.5414 81.5766 28.3606 81.5913 28.2079 81.6037C28.0965 81.6128 28 81.6206 28 81.7765V81.938H30.0916V81.7765C30.0916 81.6206 29.9952 81.6128 29.8837 81.6037C29.7311 81.5913 29.5503 81.5766 29.5503 81.1765V79.0534H30.7806C31.3184 79.0534 31.3848 79.2418 31.4432 79.4075C31.4891 79.5374 31.5299 79.6534 31.7895 79.6534H32.011V78.1072H31.8387C31.569 78.1072 31.5264 78.2181 31.4784 78.3427C31.4171 78.5022 31.3471 78.6842 30.7806 78.6842ZM40 81.938V81.7777C40 81.6245 40.0905 81.6154 40.1958 81.6048C40.3423 81.5901 40.5176 81.5725 40.5176 81.1594V76.7166C40.5176 76.3087 40.3467 76.2939 40.2014 76.2814C40.0937 76.272 40 76.2639 40 76.0983V75.938H42V76.0983C42 76.2515 41.9095 76.2606 41.8042 76.2711C41.6577 76.2859 41.4824 76.3035 41.4824 76.7166V81.1594C41.4824 81.5673 41.6533 81.582 41.7986 81.5946C41.9063 81.6039 42 81.6121 42 81.7777V81.938H40ZM44.7396 81.5946C44.6026 81.582 44.4415 81.5673 44.4415 81.1594V78.8693H44.752C45.3034 78.8693 45.4526 79.1221 45.8363 79.7719C45.8846 79.8537 45.937 79.9425 45.994 80.0372L47.1472 81.9151H48.5V81.7548C48.5 81.5879 48.447 81.5809 48.348 81.5679C48.2161 81.5505 48.0025 81.5224 47.7238 81.0907L46.6815 79.4876C46.6529 79.4462 46.6254 79.4048 46.5982 79.3641C46.4152 79.0888 46.25 78.8405 45.8831 78.8006V78.7777C46.8145 78.7548 47.7681 78.3884 47.7681 77.3808C47.7681 76.2357 46.5262 75.938 45.8609 75.938H43.0222V76.0983C43.0222 76.2639 43.1105 76.272 43.212 76.2814C43.349 76.2939 43.5101 76.3087 43.5101 76.7166V81.1594C43.5101 81.5725 43.3374 81.5901 43.1929 81.6048C43.0892 81.6154 43 81.6245 43 81.7777V81.938H44.9294V81.7777C44.9294 81.6121 44.8411 81.6039 44.7396 81.5946ZM51.0503 78.6842H52.2806C52.8422 78.6842 52.9159 78.5054 52.9811 78.3468C53.0331 78.2206 53.0798 78.1072 53.3634 78.1072H53.5356V79.6534H53.3141C53.0564 79.6534 53.0142 79.5391 52.9668 79.4103C52.9055 79.2439 52.8353 79.0534 52.2806 79.0534H51.0503V81.1765C51.0503 81.5766 51.2311 81.5913 51.3837 81.6037C51.4952 81.6128 51.5916 81.6206 51.5916 81.7765V81.938H49.5V81.7765C49.5 81.6206 49.5965 81.6128 49.7079 81.6037C49.8606 81.5913 50.0414 81.5766 50.0414 81.1765V76.7918C50.0414 76.3917 49.8606 76.377 49.7079 76.3646C49.5965 76.3555 49.5 76.3477 49.5 76.1918V76.0534H53.5356C53.7325 76.0534 54.0031 76.0303 54.2 75.938V77.438H53.9539C53.696 77.438 53.638 77.2767 53.5688 77.0842C53.4664 76.7992 53.3393 76.4457 52.5021 76.4457H51.0503V78.6842ZM62.4611 80.964C62.4873 80.9281 62.5117 80.8947 62.5299 80.8658L63.7012 79.3144L65.0637 81.1167C65.1355 81.1851 65.255 81.322 65.255 81.4133C65.255 81.5475 65.1287 81.5666 64.9999 81.586C64.8659 81.6063 64.7291 81.627 64.7291 81.7783V81.938H67V81.7783C67 81.6334 66.9459 81.62 66.8466 81.5953C66.727 81.5656 66.5419 81.5196 66.3068 81.208L64.3705 78.5844L65.6614 76.919C66.0469 76.4328 66.3214 76.3629 66.4848 76.3212C66.6051 76.2906 66.6653 76.2753 66.6653 76.1205V75.9608H64.8247V76.1205C64.8247 76.2749 64.9364 76.2853 65.0518 76.2962C65.1752 76.3077 65.3028 76.3197 65.3028 76.5083C65.3028 76.6363 65.1183 76.8817 64.996 77.0445C64.9657 77.0847 64.9392 77.12 64.9203 77.1471L64.1076 78.2194L63.0319 76.7821C63.0206 76.7659 63.0039 76.7458 62.985 76.7232C62.9242 76.6501 62.8406 76.5498 62.8406 76.4627C62.8406 76.3425 62.9339 76.3218 63.0311 76.3002C63.1367 76.2767 63.247 76.2522 63.247 76.0977V75.938H61.0717V76.0977C61.0717 76.2512 61.1246 76.2578 61.2219 76.2699C61.3414 76.2848 61.5277 76.308 61.7649 76.6224L63.4621 78.881L61.8127 81.0711C61.4757 81.5133 61.2542 81.5541 61.1288 81.5772C61.0407 81.5934 61 81.6009 61 81.7327V81.8924H62.8167V81.7327C62.8167 81.5871 62.69 81.557 62.5611 81.5262C62.4272 81.4943 62.2908 81.4618 62.2908 81.2992C62.2908 81.1971 62.384 81.0695 62.4611 80.964ZM35.5038 76.2828H34.8722V75.938H36.2481C36.2932 75.938 38.3684 81.1334 38.3684 81.1334C38.5626 81.5687 38.7419 81.5953 38.8594 81.6127C38.9467 81.6256 39 81.6335 39 81.8001V81.938H36.9925V81.8001C36.9925 81.6391 37.1109 81.6219 37.2294 81.6046C37.3478 81.5874 37.4662 81.5702 37.4662 81.4093C37.4662 81.2713 37.4211 81.0644 37.3534 80.9495L36.7444 79.4093L34.9398 79.3863L34.3083 80.8345C34.2991 80.8579 34.2871 80.886 34.2739 80.9172C34.222 81.0392 34.1504 81.2074 34.1504 81.3173C34.1504 81.5042 34.2668 81.5308 34.3814 81.5571C34.4923 81.5825 34.6015 81.6075 34.6015 81.7771V81.915H33V81.7771C33 81.6396 33.0502 81.6227 33.1364 81.5938C33.2663 81.5502 33.4777 81.4792 33.7218 80.9265L35.5038 76.2828ZM55.8876 76.2828H56.5169L54.7191 80.9265C54.4759 81.4792 54.2653 81.5502 54.1359 81.5938C54.05 81.6227 54 81.6396 54 81.7771V81.915H55.618V81.7771C55.618 81.6075 55.5092 81.5825 55.3987 81.5571C55.2845 81.5308 55.1685 81.5042 55.1685 81.3173C55.1685 81.2075 55.2397 81.0394 55.2914 80.9174C55.3047 80.8862 55.3166 80.8579 55.3258 80.8345L55.9551 79.3863L57.7528 79.4093L58.3595 80.9495C58.427 81.0644 58.4719 81.2713 58.4719 81.4093C58.4719 81.5702 58.3539 81.5874 58.236 81.6046C58.118 81.6219 58 81.6391 58 81.8001V81.938H60V81.8001C60 81.6335 59.9469 81.6256 59.86 81.6127C59.7428 81.5953 59.5642 81.5687 59.3708 81.1334C59.3708 81.1334 57.3034 75.938 57.2584 75.938H55.8876V76.2828ZM27.6824 73.438C27.5637 73.438 27.4688 73.3269 27.4688 73.188C27.4688 73.0491 27.5637 72.938 27.6824 72.938H67.1109C67.2296 72.938 67.3246 73.0491 67.3246 73.188C67.3246 73.3269 67.2296 73.438 67.1109 73.438H27.6824ZM27.4688 84.688C27.4688 84.8269 27.5637 84.938 27.6824 84.938H67.1109C67.2296 84.938 67.3246 84.8269 67.3246 84.688C67.3246 84.5491 67.2296 84.438 67.1109 84.438H27.6824C27.5637 84.438 27.4688 84.5491 27.4688 84.688ZM19.9643 81.938H19L21.5179 75.938H22.4821L25 81.938H24.0625L23.4196 80.3919H20.6071L19.9643 81.938ZM75.6562 81.938C77.442 81.938 77.8884 80.6966 78 79.892H77.2634C77.2188 80.6966 76.5714 81.2943 75.6786 81.2943C74.5179 81.2943 73.8036 80.3058 73.8036 78.9955C73.8036 77.7541 74.25 76.5587 75.6339 76.5587C76.9062 76.5587 77.1518 77.4322 77.1964 77.846H77.933C77.8438 76.9955 77.3973 75.938 75.6339 75.938C75.1652 75.938 73 76.03 73 79.0414C73 80.8346 74.0045 81.938 75.6562 81.938ZM82 75.938C83.1555 75.938 84.5 76.625 84.5 78.938C84.5 81.8922 82.3151 81.938 82 81.938C81.6639 81.938 79.5 81.8922 79.5 78.938C79.5 76.9456 80.5504 75.938 82 75.938ZM86.7734 76.9035L88.6719 81.938H89.3281L91.2266 76.9035H91.25L91.2266 77.1334V81.938H92V75.938H90.8281L89 80.8805L87.1719 75.938H86V81.938H86.7734V76.9035ZM96.5226 75.938C97.7839 75.938 98.6 76.4208 98.6 77.6621C98.6 78.7886 98.0312 79.5472 96.4237 79.5472H94.8161V81.938H94V75.938H96.5226ZM99 81.938H99.8036L100.317 80.3748H102.661L103.196 81.938H104L101.902 75.938H101.098L99 81.938ZM105.813 81.938H105V75.938H105.911L109.187 80.6966V75.938H110V81.938H109.089L105.813 77.1794V81.938ZM116 75.938H115.083L113.5 78.7196L111.917 75.938H111L113.133 79.4323V81.938H113.89V79.4323L116 75.938Z" />
</svg>

<svg width="135" height="100" viewBox="0 0 135 100" xmlns="http://www.w3.org/2000/svg"><path d="M64.12 40.708V28.644c2.42-.095 4.795-.142 6.67 1.646 1.851 1.74 2.089 3.95 1.448 6.256-.641 2.328-2.398 3.48-4.677 3.88-.75.142-1.51.178-2.288.215-.38.018-.764.037-1.153.067zM38.79 45.46l-3.038-6.703-3.038 6.702h6.077zm7.98 31.99c0 .938-.754 1.099-1.441 1.099h-.888v-2.222h1.154c.576 0 1.175.344 1.175 1.123zm-10.883-.431l-.79 1.977h1.535l-.745-1.977zm20.225 1.977l.787-1.977.741 1.977h-1.528zm-32.933.727l-1.152-2.954-1.179 2.954h2.33zM82 81.274c.357 0 1.744-.092 1.744-2.359 0-1.328-.546-2.359-1.744-2.359-1.597 0-1.744 1.74-1.744 2.36 0 .915.252 2.358 1.744 2.358zm12.84-2.416h1.51c.989 0 1.41-.414 1.41-1.196 0-.736-.47-1.057-1.41-1.057h-1.51v2.252zm6.682-2.115l.96 2.965h-1.92l.96-2.965z"/><path fill-rule="evenodd" clip-rule="evenodd" d="M134.332 0h-134v100h134V0zM75.3 44.307c.08-.063.138-.105.196-.147a6.27 6.27 0 00.089-.065c4.012-2.657 5.934-6.326 5.412-11.148-.356-3.292-1.756-6.044-4.368-8.137-2.92-2.328-6.338-3.245-10.017-3.316-3.394-.07-10.42 0-10.563.023v35.066h2.682v-32.69l7.169-.047c1.828.023 3.632.235 5.365.87 5.507 1.976 7.525 6.68 6.884 11.265-.428 3.105-2.232 5.339-4.938 6.891-.257.142-.523.275-.792.41-.178.089-.358.179-.537.272l8.76 12.818c.07.094.19.235.284.235.61.015 1.221.01 1.859.005.33-.003.666-.005 1.013-.005l-8.498-12.3zM19.54 56.63L35.965 21l16.45 35.607c-.233 0-.463.001-.691.003h-.002c-.676.004-1.333.008-1.99-.027-.118 0-.26-.258-.332-.423L35.894 26.597 22.46 56.16c-.166.353-.356.494-.76.47a30.84 30.84 0 00-1.384-.005c-.25.002-.507.005-.776.005zm97.323-.588l-10.349-17.05c-.189-.306-.189-.541 0-.847l9.922-16.627c-.298 0-.589.002-.873.005-.551.005-1.079.01-1.596-.005-.355 0-.546.117-.712.4l-9.756 16.274c-.165.282-.165.47 0 .753l10.468 17.262c.095.165.262.4.381.4.69.035 1.368.03 2.081.026.243-.001.49-.003.744-.003a6.692 6.692 0 00-.31-.588zM90.183 21.87l9.733 16.063c.19.283.166.494-.024.753l-.118.195-.007.01a11237.65 11237.65 0 00-10.486 17.316c-.19.306-.356.447-.712.423-.5-.015-1-.01-1.526-.005h-.003c-.273.003-.553.005-.845.005.119-.211.214-.376.309-.54L96.9 38.733c.19-.33.214-.564 0-.894l-9.922-16.368c.247 0 .49-.002.728-.003.701-.005 1.37-.01 2.025.026.166 0 .356.212.451.376zM68.037 42.52c.047-.047.07-.07.094-.07.05-.01.105-.024.162-.04.078-.02.16-.04.242-.054 2.469-.565 4.557-1.74 5.863-3.998 2.136-3.646 1.187-10.372-5.697-11.854-1.258-.258-2.492-.329-3.75-.329l-3.419.07c-.024 0-.047.024-.071.048v30.315h2.659V41.155L74.54 56.23c.095.142.285.377.428.377.925.023 1.828.023 2.848.023l-9.78-14.111zm-39.121 5.316l6.931-15.17 6.884 15.17H28.916zm72.661-7.15L91.893 56.63c.29 0 .57-.002.841-.005h.005c.527-.005 1.028-.01 1.527.005.356 0 .546-.094.712-.4l6.457-10.794 6.575 10.818c.095.165.309.353.451.376.655.035 1.324.031 2.025.027.239-.002.482-.003.729-.003l-9.638-15.97zm6.078-18.791c.19-.306.38-.447.76-.424.708.046 1.416.026 2.208.003l.094-.003-8.878 14.7-8.878-14.676c.26 0 .513-.002.76-.003a36.433 36.433 0 012.088.026c.12 0 .285.236.38.4l5.769 9.454 5.697-9.477zM46.672 56.466l-2.73-5.974c-.071-.141-.309-.259-.475-.259H28.18c-.166 0-.427.165-.522.33l-2.754 6.044c.275 0 .542-.003.803-.005.503-.006.983-.01 1.452.005.356.023.499-.118.641-.423l1.448-3.199c.143-.306.285-.423.641-.423h11.703c.38 0 .522.14.665.447l1.495 3.222c.071.14.237.329.356.329.855.023 1.71.023 2.564.023v-.117zM30.78 78.684h-1.23v-2.238h1.451c.837 0 .964.353 1.067.638.069.193.127.354.385.354h.246v-1.5c-.197.092-.468.115-.664.115H28v.139c0 .156.096.164.208.173.153.012.333.027.333.427v4.385c0 .4-.18.414-.333.427-.111.009-.208.017-.208.172v.162h2.092v-.162c0-.155-.097-.163-.208-.172-.153-.013-.334-.027-.334-.427v-2.124h1.23c.538 0 .605.189.663.355.046.13.087.245.346.245h.222v-1.546h-.172c-.27 0-.313.111-.36.236-.062.16-.132.341-.698.341zM40 81.938v-.16c0-.154.09-.163.196-.173.146-.015.322-.032.322-.446v-4.442c0-.408-.171-.423-.317-.436-.107-.009-.201-.017-.201-.183v-.16h2v.16c0 .153-.09.163-.196.173-.146.015-.322.032-.322.446v4.442c0 .408.171.423.317.436.107.009.201.017.201.183v.16h-2zm4.74-.343c-.137-.013-.299-.028-.299-.436v-2.29h.311c.551 0 .7.253 1.084.903l.158.265 1.153 1.878H48.5v-.16c0-.167-.053-.174-.152-.187-.132-.017-.346-.046-.624-.477l-1.042-1.603c-.03-.042-.057-.083-.084-.124-.183-.275-.348-.523-.715-.563v-.023c.931-.023 1.885-.39 1.885-1.397 0-1.145-1.242-1.443-1.907-1.443h-2.839v.16c0 .166.089.174.19.183.137.013.298.028.298.436v4.442c0 .413-.173.431-.317.446-.104.01-.193.02-.193.173v.16h1.93v-.16c0-.166-.089-.174-.19-.183zm6.31-2.91h1.23c.562 0 .636-.18.701-.338.052-.126.099-.24.382-.24h.173v1.546h-.222c-.258 0-.3-.114-.347-.243-.061-.166-.132-.357-.686-.357h-1.23v2.124c0 .4.18.414.333.427.111.009.208.017.208.172v.162H49.5v-.162c0-.155.096-.163.208-.172.153-.013.333-.027.333-.427v-4.385c0-.4-.18-.415-.333-.427-.111-.01-.208-.017-.208-.173v-.139h4.036c.197 0 .467-.023.664-.115v1.5h-.246c-.258 0-.316-.161-.385-.354-.103-.285-.23-.638-1.067-.638H51.05v2.238zm11.411 2.279l.069-.098 1.171-1.552 1.363 1.803c.072.068.191.205.191.296 0 .135-.126.154-.255.173-.134.02-.27.041-.27.192v.16H67v-.16c0-.145-.054-.158-.153-.183-.12-.03-.305-.075-.54-.387l-1.936-2.624 1.29-1.665c.386-.486.66-.556.824-.598.12-.03.18-.046.18-.2v-.16h-1.84v.16c0 .154.111.164.227.175.123.012.25.024.25.212 0 .128-.184.374-.306.537l-.076.102-.812 1.072-1.076-1.437a.956.956 0 00-.047-.059c-.06-.073-.144-.173-.144-.26 0-.12.093-.141.19-.163.106-.023.216-.048.216-.202v-.16h-2.175v.16c0 .153.053.16.15.172.12.015.306.038.543.352l1.697 2.259-1.65 2.19c-.336.442-.558.483-.683.506-.088.016-.129.024-.129.156v.16h1.817v-.16c0-.146-.127-.176-.256-.207-.134-.032-.27-.064-.27-.227 0-.102.093-.23.17-.335zm-26.957-4.681h-.632v-.345h1.376c.045 0 2.12 5.195 2.12 5.195.195.436.374.462.491.48.088.013.141.02.141.187v.138h-2.008V81.8c0-.16.119-.178.237-.195.119-.018.237-.035.237-.196 0-.138-.045-.345-.113-.46l-.609-1.54-1.804-.023-.632 1.449a1.68 1.68 0 01-.034.082c-.052.122-.124.29-.124.4 0 .187.117.214.231.24.111.025.22.05.22.22v.138H33v-.138c0-.137.05-.154.136-.183.13-.044.342-.115.586-.667l1.782-4.644zm20.384 0h.629l-1.798 4.644c-.243.552-.454.623-.583.667-.086.029-.136.046-.136.183v.138h1.618v-.138c0-.17-.109-.195-.22-.22-.114-.026-.23-.053-.23-.24 0-.11.072-.278.123-.4a3.35 3.35 0 00.035-.082l.63-1.449 1.797.023.606 1.54c.068.115.113.322.113.46 0 .161-.118.178-.236.196-.118.017-.236.034-.236.195v.138h2V81.8c0-.166-.053-.174-.14-.187-.117-.018-.296-.044-.49-.48 0 0-2.067-5.195-2.112-5.195h-1.37v.345zm-28.206-2.845c-.118 0-.213-.111-.213-.25s.095-.25.213-.25h39.429c.119 0 .214.111.214.25s-.095.25-.214.25H27.682zm-.213 11.25c0 .139.095.25.213.25h39.429c.119 0 .214-.111.214-.25s-.095-.25-.214-.25H27.682c-.118 0-.213.111-.213.25zm-7.505-2.75H19l2.518-6h.964l2.518 6h-.938l-.642-1.546h-2.813l-.643 1.546zm55.692 0c1.786 0 2.232-1.241 2.344-2.046h-.737c-.044.805-.692 1.402-1.584 1.402-1.161 0-1.875-.988-1.875-2.298 0-1.242.446-2.437 1.83-2.437 1.272 0 1.518.873 1.562 1.287h.737c-.09-.85-.536-1.908-2.3-1.908-.468 0-2.633.092-2.633 3.103 0 1.794 1.004 2.897 2.656 2.897zm6.344-6c1.156 0 2.5.687 2.5 3 0 2.954-2.185 3-2.5 3-.336 0-2.5-.046-2.5-3 0-1.992 1.05-3 2.5-3zm4.773.965l1.899 5.035h.656l1.899-5.035h.023l-.023.23v4.805H92v-6h-1.172L89 80.88l-1.828-4.942H86v6h.773v-5.035zm9.75-.965c1.26 0 2.077.483 2.077 1.724 0 1.127-.569 1.885-2.176 1.885h-1.608v2.391H94v-6h2.523zm2.477 6h.804l.513-1.563h2.344l.535 1.563H104l-2.098-6h-.804l-2.098 6zm6.813 0H105v-6h.911l3.276 4.759v-4.759H110v6h-.911l-3.276-4.759v4.759zm10.187-6h-.917L113.5 78.72l-1.583-2.782H111l2.133 3.494v2.506h.757v-2.506l2.11-3.494z"/></svg>
